Simply-Cyan-Circles/scalable/apps/huludesktop.svg

<svg xmlns="http://www.w3.org/2000/svg" width="48" height="48" viewBox="0 0 12.7 12.7"><path fill="#5beedc" d="M6.344.073a6.29 6.29 0 0 0-6.29 6.29 6.29 6.29 0 0 0 6.29 6.288 6.29 6.29 0 0 0 6.29-6.289 6.29 6.29 0 0 0-6.29-6.29zm-.018.936a5.407 5.407 0 0 1 5.407 5.407 5.407 5.407 0 0 1-5.407 5.407A5.407 5.407 0 0 1 .92 6.416 5.407 5.407 0 0 1 6.326 1.01zM5.173 2.181l-2.093.124v.487h.543c.419 0 .487.078.487.565V9.58c0 .453-.125.532-.849.532h-.045v.407h2.862v-.407h-.045c-.735 0-.86-.08-.86-.532V7.962c0-.566.08-1.074.204-1.334.238-.51.746-.86 1.233-.86.294 0 .634.17.804.395.17.25.248.588.248 1.142V9.58c0 .453-.124.532-.86.532h-.045v.407H9.62v-.407h-.045c-.724 0-.849-.08-.849-.532V7.351c0-.815-.034-1.018-.238-1.403-.282-.543-.848-.87-1.527-.87-.724 0-1.279.338-1.788 1.096V2.181z"/></svg>

<?xml version="1.0" encoding="UTF-8" standalone="no"?>
<svg
   xmlns:dc="http://purl.org/dc/elements/1.1/"
   xmlns:cc="http://creativecommons.org/ns#"
   xmlns:rdf="http://www.w3.org/1999/02/22-rdf-syntax-ns#"
   xmlns:svg="http://www.w3.org/2000/svg"
   xmlns="http://www.w3.org/2000/svg"
   xmlns:sodipodi="http://sodipodi.sourceforge.net/DTD/sodipodi-0.dtd"
   xmlns:inkscape="http://www.inkscape.org/namespaces/inkscape"
   width="48"
   height="48"
   viewBox="0 0 12.7 12.7"
   version="1.1"
   id="svg4"
   sodipodi:docname="huludesktop.svg"
   inkscape:version="0.92.4 (5da689c313, 2019-01-14)">
  <metadata
     id="metadata10">
    <rdf:RDF>
      <cc:Work
         rdf:about="">
        <dc:format>image/svg+xml</dc:format>
        <dc:type
           rdf:resource="http://purl.org/dc/dcmitype/StillImage" />
        <dc:title></dc:title>
      </cc:Work>
    </rdf:RDF>
  </metadata>
  <defs
     id="defs8" />
  <sodipodi:namedview
     pagecolor="#ffffff"
     bordercolor="#666666"
     borderopacity="1"
     objecttolerance="10"
     gridtolerance="10"
     guidetolerance="10"
     inkscape:pageopacity="0"
     inkscape:pageshadow="2"
     inkscape:window-width="1087"
     inkscape:window-height="480"
     id="namedview6"
     showgrid="false"
     inkscape:zoom="4.9166667"
     inkscape:cx="2.1355932"
     inkscape:cy="24"
     inkscape:window-x="0"
     inkscape:window-y="25"
     inkscape:window-maximized="0"
     inkscape:current-layer="svg4" />
  <path
     d="m 6.344,0.073 a 6.29,6.29 0 0 0 -6.29,6.29 6.29,6.29 0 0 0 6.29,6.288 6.29,6.29 0 0 0 6.29,-6.289 6.29,6.29 0 0 0 -6.29,-6.29 z M 6.326,1.009 A 5.407,5.407 0 0 1 11.733,6.416 5.407,5.407 0 0 1 6.326,11.823 5.407,5.407 0 0 1 0.92,6.416 5.407,5.407 0 0 1 6.326,1.01 Z M 5.173,2.181 3.08,2.305 v 0.487 h 0.543 c 0.419,0 0.487,0.078 0.487,0.565 V 9.58 c 0,0.453 -0.125,0.532 -0.849,0.532 H 3.216 v 0.407 H 6.078 V 10.112 H 6.033 c -0.735,0 -0.86,-0.08 -0.86,-0.532 V 7.962 c 0,-0.566 0.08,-1.074 0.204,-1.334 0.238,-0.51 0.746,-0.86 1.233,-0.86 0.294,0 0.634,0.17 0.804,0.395 0.17,0.25 0.248,0.588 0.248,1.142 V 9.58 c 0,0.453 -0.124,0.532 -0.86,0.532 H 6.757 v 0.407 H 9.62 V 10.112 H 9.575 c -0.724,0 -0.849,-0.08 -0.849,-0.532 V 7.351 C 8.726,6.536 8.692,6.333 8.488,5.948 8.206,5.405 7.64,5.078 6.961,5.078 6.237,5.078 5.682,5.416 5.173,6.174 Z"
     id="path2"
     inkscape:connector-curvature="0"
     style="fill:#5beedc" />
</svg>
